!!!OTL: 42g. Reiter und Koenigstochter.
!!!ARE: Europa, Mitteleuropa, Deutschland, Westfalen
!!!SCT: E0042E
!!!TXL: @@DE
!!!YEM: Copyright 1995, estate of Helmut Schaffrath.
**kern	**text
*ICvox	*
*M6/8	*
*k[f#]	*
*G:	*
!LO:TX:a:t=Mäßig.	!
!LO:TX:a:t=Mel. aus Weſtfalen.	!
{8d	Es
=1	=1
4g	ʒog
8g	ein
8gL	Rei-
8aJ	-ter
8b	wol
=2	=2
8b/	ü-
8a	-ber
8a	den
4a}	Rhein,
{8a	er
=3	=3
8f#	ſang
8a	ein
8a	ſo
8aL	ſchö-
8bJ	.
8cc	-nes
=4	=4
4cc	Lie-
8b	-de-
4b}	-lein;
{8g	er
=5	=5
[8g	konn-
8g]	-te
8g	ſo
8gL	ſchö-
8aJ	.
8b/	-ne
=6	=6
4.cc	ſin-
4a	-gen,
8dd	ja
=7	=7
4.b/	ſin-
4g}	-gen,
{8g	daß
=8	=8
4a	Berg
8a	und
8cc/L	Thal
8aJ	.
8f#	er-
=9	=9
4.a	-klin-
4g}	-gen.
==	==
!!!AGN: erzaehlendes Volks - Lied, Ritter -, Raeuber - Sage, Ballade ?
!!!ONB: ESAC (Essen Associative Code) Database: ERK1
!!!AMT: compound duple
!!!AIN: vox
!!!EED: Helmut Schaffrath
!!!EEV: 1.0
!!!GTL: Ritter- und Raeubersagen
!!!URL-scan: https://rosdok.uni-rostock.de/mcrviewer/recordIdentifier/rosdok_ppn745146120/iview2/phys_0204.iview2?x=-250.1417780126858&y=1307.111641614465&scale=0.5392104374602399&rotation=0&layout=singlePageLayout&logicalDiv=log_0009
!!!ENC: Anna Maria Matuszewska
!!!EEV: 2024/11/25
*-	*-
